X:1
T: Maybe I will
C:
R:Jig
Q:180
K:G
M:6/8
L:1/16
c2|B2c2A2 G2B2G2|E2D2E2 G4A2|B2A2G2 G2B2d2|e2c2A2 A2d2c2|B2c2A2 G2E2G2|D2E2F2 G2B2c2|d2g2e2 d2B2A2|B2G2G2 G4c2|
B2c2A2 G2B2G2|E2D2E2 G4A2|B2A2G2 G2B2d2|e2c2A2 A2d2c2|B2c2A2 G2E2G2|D2E2F2 G2B2c2|d2g2e2 d2B2A2|B2G2G2 G4D2|
G2B2c2 d2B2A2|B2d2d2 d2e2f2|g2f2e2 d2B2G2|A2G2A2 B2G2E2|G2A2G2 g4g2|f2e2d2 g2f2e2|d2B2G2 c2B2A2|B2G2G2 G4D2|
G2B2c2 d2B2A2|B2d2d2 d2e2f2|g2f2e2 d2B2G2|A2G2A2 B2G2E2|G2A2G2 g4g2|f2e2d2 g2f2e2|d2B2G2 c2B2A2|B2G2G2 G4||
